projects/flag-game/flags/Comoros.svg

<svg viewBox="0 0 1000 600" xmlns="http://www.w3.org/2000/svg"><path d="m0 0h1000v600h-1000z" fill="#ffc61e"/><g fill-rule="evenodd"><path d="m0 150h1000v450h-1000zm0 0" fill="#fff"/><path d="m0 300h1000v300h-1000zm0 0" fill="#ce1126"/><path d="m0 450h1000v150h-1000zm0 0" fill="#3a75c4"/><path d="m0 600 500-300-500-300zm0 0" fill="#3d8e33"/><path d="m305 300c0 74.558594-60.441406 135-135 135s-135-60.441406-135-135 60.441406-135 135-135 135 60.441406 135 135zm0 0" fill="#fff"/><path d="m365 300c0 74.558594-60.441406 135-135 135s-135-60.441406-135-135 60.441406-135 135-135 135 60.441406 135 135zm0 0" fill="#3d8e33"/><path d="m176.21875 195.65625h18.167969l5.613281-17.277344 5.613281 17.277344h18.167969l-14.699219 10.671875 5.617188 17.273437-14.699219-10.671874-14.699219 10.671874 5.617188-17.273437zm0 0" fill="#fff"/><path d="m176.21875 260.066406h18.167969l5.613281-17.273437 5.613281 17.273437h18.167969l-14.699219 10.675782 5.617188 17.273437-14.699219-10.671875-14.699219 10.671875 5.617188-17.273437zm0 0" fill="#fff"/><path d="m176.21875 324.484375h18.167969l5.613281-17.277344 5.613281 17.277344h18.167969l-14.699219 10.671875 5.617188 17.277344-14.699219-10.675782-14.699219 10.675782 5.617188-17.277344zm0 0" fill="#fff"/><path d="m176.21875 388.898438h18.167969l5.613281-17.277344 5.613281 17.277344h18.167969l-14.699219 10.671874 5.617188 17.273438-14.699219-10.671875-14.699219 10.671875 5.617188-17.273438zm0 0" fill="#fff"/></g></svg>

<?xml version="1.0" encoding="UTF-8"?>
<svg xmlns="http://www.w3.org/2000/svg" xmlns:xlink="http://www.w3.org/1999/xlink" viewBox="0 0 1000 600" version="1.1">
<g id="surface314">
<rect x="0" y="0" width="1000" height="600" style="fill:rgb(99.998474%,77.645874%,11.764526%);fill-opacity:1;stroke:none;"/>
<path style=" stroke:none;fill-rule:evenodd;fill:rgb(99.998474%,99.998474%,99.998474%);fill-opacity:1;" d="M 0 150 L 1000 150 L 1000 600 L 0 600 Z M 0 150 "/>
<path style=" stroke:none;fill-rule:evenodd;fill:rgb(80.783081%,6.666565%,14.901733%);fill-opacity:1;" d="M 0 300 L 1000 300 L 1000 600 L 0 600 Z M 0 300 "/>
<path style=" stroke:none;fill-rule:evenodd;fill:rgb(22.744751%,45.881653%,76.861572%);fill-opacity:1;" d="M 0 450 L 1000 450 L 1000 600 L 0 600 Z M 0 450 "/>
<path style=" stroke:none;fill-rule:evenodd;fill:rgb(23.921204%,55.685425%,19.999695%);fill-opacity:1;" d="M 0 600 L 500 300 L 0 0 Z M 0 600 "/>
<path style=" stroke:none;fill-rule:evenodd;fill:rgb(99.998474%,99.998474%,99.998474%);fill-opacity:1;" d="M 305 300 C 305 374.558594 244.558594 435 170 435 C 95.441406 435 35 374.558594 35 300 C 35 225.441406 95.441406 165 170 165 C 244.558594 165 305 225.441406 305 300 Z M 305 300 "/>
<path style=" stroke:none;fill-rule:evenodd;fill:rgb(23.921204%,55.685425%,19.999695%);fill-opacity:1;" d="M 365 300 C 365 374.558594 304.558594 435 230 435 C 155.441406 435 95 374.558594 95 300 C 95 225.441406 155.441406 165 230 165 C 304.558594 165 365 225.441406 365 300 Z M 365 300 "/>
<path style=" stroke:none;fill-rule:evenodd;fill:rgb(99.998474%,99.998474%,99.998474%);fill-opacity:1;" d="M 176.21875 195.65625 L 194.386719 195.65625 L 200 178.378906 L 205.613281 195.65625 L 223.78125 195.65625 L 209.082031 206.328125 L 214.699219 223.601562 L 200 212.929688 L 185.300781 223.601562 L 190.917969 206.328125 Z M 176.21875 195.65625 "/>
<path style=" stroke:none;fill-rule:evenodd;fill:rgb(99.998474%,99.998474%,99.998474%);fill-opacity:1;" d="M 176.21875 260.066406 L 194.386719 260.066406 L 200 242.792969 L 205.613281 260.066406 L 223.78125 260.066406 L 209.082031 270.742188 L 214.699219 288.015625 L 200 277.34375 L 185.300781 288.015625 L 190.917969 270.742188 Z M 176.21875 260.066406 "/>
<path style=" stroke:none;fill-rule:evenodd;fill:rgb(99.998474%,99.998474%,99.998474%);fill-opacity:1;" d="M 176.21875 324.484375 L 194.386719 324.484375 L 200 307.207031 L 205.613281 324.484375 L 223.78125 324.484375 L 209.082031 335.15625 L 214.699219 352.433594 L 200 341.757812 L 185.300781 352.433594 L 190.917969 335.15625 Z M 176.21875 324.484375 "/>
<path style=" stroke:none;fill-rule:evenodd;fill:rgb(99.998474%,99.998474%,99.998474%);fill-opacity:1;" d="M 176.21875 388.898438 L 194.386719 388.898438 L 200 371.621094 L 205.613281 388.898438 L 223.78125 388.898438 L 209.082031 399.570312 L 214.699219 416.84375 L 200 406.171875 L 185.300781 416.84375 L 190.917969 399.570312 Z M 176.21875 388.898438 "/>
</g>
</svg>
